lib/healthicons/icons/solid/symbols/nutrition.svg

<svg fill="none" height="48" viewBox="0 0 48 48" width="48" xmlns="http://www.w3.org/2000/svg"><g fill="#333"><path clip-rule="evenodd" d="m7.06486 17.3876c-1.1217-1.0266-1.88764-2.6925-2.03775-5.3836-.03076-.5514.42481-1.0056.97701-.9959 1.67512.0293 2.95795.1439 3.93759.4328.41979-1.0885 1.25719-2.11633 2.51209-3.05534.3232-.24186.7694-.24186 1.0926 0 1.2652.9467 2.1059 1.98374 2.5223 3.08214 1.0088-.3391 2.3019-.438 3.93-.4614.5522-.0079 1.0052.4463.9744.9977-.1501 2.6911-.916 4.357-2.0377 5.3835.5477.408.8652 1.0927.7487 1.833-.2771 1.7595-.7554 4.469-1.508 7.7795h-6.176v2h5.7046c-.7509 3.0755-1.7206 6.5554-2.9573 10.209-.583 1.7224-2.9115 1.7224-3.4945 0-.4855-1.4344-.9299-2.8421-1.33608-4.209h2.08328v-2h-2.65913c-.94571-3.3914-1.64966-6.4697-2.16103-9h3.82016v-2h-4.20706c-.20029-1.0846-.35727-2.0205-.4768-2.7795-.11658-.7403.20094-1.425.74862-1.8329zm7.13374-5.211.6824 1.8003 1.825-.6135c.5032-.1691 1.184-.2701 2.1538-.3209-.2968 1.9321-1.0122 2.7481-1.6643 3.1699-.9315.6024-2.2887.7857-4.1655.7876h-.0598c-1.8767-.0019-3.23397-.1852-4.16549-.7876-.65148-.4214-1.36612-1.2363-1.66343-3.1644 1.00073.0547 1.71303.1574 2.23468.3112l1.76834.5215.6634-1.72c.1907-.4943.5589-1.0492 1.1924-1.6342.6402.5912 1.0095 1.1517 1.1985 1.6501z" fill-rule="evenodd"/><path clip-rule="evenodd" d="m33.7071 13.7071c-1.9729 1.9729-2.1651 4.7274-1.0563 7.3203 4.8547-3.1784 10.3492.7524 10.3492 6.9726 0 5.5228-4.9249 10-11 10s-11-4.4772-11-10c0-5.7923 4.7646-9.5994 9.3403-7.5292-.7813-2.8005-.3768-5.8486 1.9526-8.1779zm6.263 16.5354c.134-.5358-.1918-1.0787-.7276-1.2127-.5358-.1339-1.0787.1918-1.2126.7276-.4105 1.6417-1.6307 2.862-3.2724 3.2724-.5358.134-.8616.6769-.7276 1.2127.1339.5358.6768.8616 1.2126.7276 2.3583-.5896 4.1381-2.3693 4.7276-4.7276z" fill-rule="evenodd"/><path d="m34 18c3 0 5-2 5-5-3 0-5 2-5 5z"/></g></svg>

<svg width="48" height="48" viewBox="0 0 48 48" fill="none" xmlns="http://www.w3.org/2000/svg">
<path fill-rule="evenodd" clip-rule="evenodd" d="M7.06486 17.3876C5.94316 16.361 5.17722 14.6951 5.02711 12.004C4.99635 11.4526 5.45192 10.9984 6.00412 11.0081C7.67924 11.0374 8.96207 11.152 9.94171 11.4409C10.3615 10.3524 11.1989 9.32457 12.4538 8.38556C12.777 8.1437 13.2232 8.1437 13.5464 8.38556C14.8116 9.33226 15.6523 10.3693 16.0687 11.4677C17.0775 11.1286 18.3706 11.0297 19.9987 11.0063C20.5509 10.9984 21.0039 11.4526 20.9731 12.004C20.823 14.6951 20.0571 16.361 18.9354 17.3875C19.4831 17.7955 19.8006 18.4802 19.6841 19.2205C19.407 20.98 18.9287 23.6895 18.1761 27H12.0001V29H17.7047C16.9538 32.0755 15.9841 35.5554 14.7474 39.209C14.1644 40.9314 11.8359 40.9314 11.2529 39.209C10.7674 37.7746 10.323 36.3669 9.91682 35H12.0001V33H9.34097C8.39526 29.6086 7.69131 26.5303 7.17994 24H11.0001V22H6.79304C6.59275 20.9154 6.43577 19.9795 6.31624 19.2205C6.19966 18.4802 6.51718 17.7955 7.06486 17.3876ZM14.1986 12.1766L14.881 13.9769L16.706 13.3634C17.2092 13.1943 17.89 13.0933 18.8598 13.0425C18.563 14.9746 17.8476 15.7906 17.1955 16.2124C16.264 16.8148 14.9068 16.9981 13.03 17H12.9702C11.0935 16.9981 9.73623 16.8148 8.80471 16.2124C8.15323 15.791 7.43859 14.9761 7.14128 13.048C8.14201 13.1027 8.85431 13.2054 9.37596 13.3592L11.1443 13.8807L11.8077 12.1607C11.9984 11.6664 12.3666 11.1115 13.0001 10.5265C13.6403 11.1177 14.0096 11.6782 14.1986 12.1766Z" fill="#333333"/>
<path fill-rule="evenodd" clip-rule="evenodd" d="M33.7071 13.7071C31.7342 15.68 31.542 18.4345 32.6508 21.0274C37.5055 17.849 43 21.7798 43 28C43 33.5228 38.0751 38 32 38C25.9249 38 21 33.5228 21 28C21 22.2077 25.7646 18.4006 30.3403 20.4708C29.559 17.6703 29.9635 14.6222 32.2929 12.2929L33.7071 13.7071ZM39.9701 30.2425C40.1041 29.7067 39.7783 29.1638 39.2425 29.0298C38.7067 28.8959 38.1638 29.2216 38.0299 29.7574C37.6194 31.3991 36.3992 32.6194 34.7575 33.0298C34.2217 33.1638 33.8959 33.7067 34.0299 34.2425C34.1638 34.7783 34.7067 35.1041 35.2425 34.9701C37.6008 34.3805 39.3806 32.6008 39.9701 30.2425Z" fill="#333333"/>
<path d="M34 18C37 18 39 16 39 13C36 13 34 15 34 18Z" fill="#333333"/>
</svg>
